Resources/Public/Icons/solid/arrow-down-up-across-line.svg

<svg xmlns="http://www.w3.org/2000/svg" viewBox="0 0 576 512"><!--! Font Awesome Free 6.6.0 by @fontawesome - https://fontawesome.com License - https://fontawesome.com/license/free (Icons: CC BY 4.0, Fonts: SIL OFL 1.1, Code: MIT License) Copyright 2024 Fonticons, Inc. --><path d="M137.4 502.6c12.5 12.5 32.8 12.5 45.3 0l96-96c12.5-12.5 12.5-32.8 0-45.3s-32.8-12.5-45.3 0L192 402.7 192 288l352 0c17.7 0 32-14.3 32-32s-14.3-32-32-32l-96 0 0-114.7 41.4 41.4c12.5 12.5 32.8 12.5 45.3 0s12.5-32.8 0-45.3l-96-96c-12.5-12.5-32.8-12.5-45.3 0l-96 96c-12.5 12.5-12.5 32.8 0 45.3s32.8 12.5 45.3 0L384 109.3 384 224l-192 0-64 0-96 0c-17.7 0-32 14.3-32 32s14.3 32 32 32l96 0 0 114.7L86.6 361.4c-12.5-12.5-32.8-12.5-45.3 0s-12.5 32.8 0 45.3l96 96zM128 192l64 0 0-128c0-17.7-14.3-32-32-32s-32 14.3-32 32l0 128zM448 320l-64 0 0 128c0 17.7 14.3 32 32 32s32-14.3 32-32l0-128z"/></svg>

<svg xmlns="http://www.w3.org/2000/svg" viewBox="0 0 576 512"><!--! Font Awesome Free 6.5.1 by @fontawesome - https://fontawesome.com License - https://fontawesome.com/license/free (Icons: CC BY 4.0, Fonts: SIL OFL 1.1, Code: MIT License) Copyright 2023 Fonticons, Inc. --><path d="M137.4 502.6c12.5 12.5 32.8 12.5 45.3 0l96-96c12.5-12.5 12.5-32.8 0-45.3s-32.8-12.5-45.3 0L192 402.7V288H544c17.7 0 32-14.3 32-32s-14.3-32-32-32H448V109.3l41.4 41.4c12.5 12.5 32.8 12.5 45.3 0s12.5-32.8 0-45.3l-96-96c-12.5-12.5-32.8-12.5-45.3 0l-96 96c-12.5 12.5-12.5 32.8 0 45.3s32.8 12.5 45.3 0L384 109.3V224H192 128 32c-17.7 0-32 14.3-32 32s14.3 32 32 32h96V402.7L86.6 361.4c-12.5-12.5-32.8-12.5-45.3 0s-12.5 32.8 0 45.3l96 96zM128 192h64V64c0-17.7-14.3-32-32-32s-32 14.3-32 32V192zM448 320H384V448c0 17.7 14.3 32 32 32s32-14.3 32-32V320z"/></svg>
